static/brand/voted-stamp.svg

<svg width="241" height="109" viewBox="0 0 241 109" fill="none" xmlns="http://www.w3.org/2000/svg">
<path d="M88.3332 49.8941L91.485 65.483C91.7611 66.8486 91.5724 67.8051 90.9204 68.353C90.295 68.8608 89.1498 69.2838 87.4844 69.6206L82.4878 70.6308L79.336 55.0419C79.0599 53.6762 79.2517 52.7353 79.9104 52.2208C80.5624 51.6731 81.6876 51.2378 83.2859 50.9146L88.3332 49.8941Z" fill="white"/>
<path d="M184.126 30.7867C185.792 30.45 187.015 30.4105 187.795 30.6687C188.602 30.887 189.143 31.6796 189.419 33.0453L191.823 44.9366C192.099 46.3022 191.912 47.2585 191.26 47.8063C190.634 48.3142 189.489 48.7372 187.824 49.0739L182.827 50.0841L179.13 31.7969L184.126 30.7867Z" fill="white"/>
<path fill-rule="evenodd" clip-rule="evenodd" d="M240.654 65.483L6.46558 108.728L0 47.2463L221.029 0L240.654 65.483ZM81.415 40.6312C78.0842 41.3047 75.3639 42.2538 73.2538 43.4778C71.1437 44.7019 69.5506 46.2547 68.4748 48.1364C67.4325 50.0114 66.8636 52.2584 66.7691 54.8777C66.7012 57.457 67.0145 60.4621 67.7081 63.8929C68.3681 67.1572 69.2137 69.9687 70.245 72.3259C71.2695 74.6496 72.6129 76.4929 74.2752 77.8556C75.9709 79.2117 78.0358 80.0773 80.4693 80.4521C82.9292 80.7868 85.891 80.6033 89.355 79.903C92.819 79.2026 95.6031 78.2244 97.7064 76.9671C99.8364 75.6697 101.403 74.0698 102.405 72.1683C103.441 70.2601 103.98 68.0362 104.022 65.4969C104.056 62.9243 103.743 60.0051 103.083 56.7407C102.389 53.31 101.493 50.4227 100.395 48.0791C99.324 45.6955 97.927 43.846 96.2048 42.53C94.5159 41.2073 92.4618 40.3918 90.0421 40.0836C87.6554 39.7687 84.7793 39.951 81.415 40.6312ZM26.6522 52.6398L43.522 88.234L61.0099 84.6983L62.7269 45.3462L50.0853 47.9021L49.7478 72.7249L49.1984 72.836L39.293 50.0841L26.6522 52.6398ZM100.776 37.6533L102.716 47.2463L111.41 45.4885L117.047 73.3687L129.039 70.9442L123.402 43.064L132.095 41.3064L130.156 31.7134L100.776 37.6533ZM133.434 31.0506L141.01 68.5238L167.691 63.1295L165.752 53.5365L151.063 56.5063L150.143 51.9596L162.135 49.5351L160.377 40.8409L148.386 43.2654L147.365 38.2191L160.256 35.6129L159.815 25.7168L133.434 31.0506ZM165.199 24.6284L172.775 62.1016L189.563 58.7074C192.927 58.0272 195.672 57.1085 197.795 55.951C199.919 54.7936 201.513 53.3274 202.575 51.5523C203.638 49.7773 204.212 47.6492 204.301 45.1697C204.415 42.6503 204.133 39.7085 203.453 36.3444C202.773 32.9802 201.893 30.1763 200.816 27.9326C199.771 25.6823 198.415 23.9454 196.746 22.7226C195.078 21.4998 193.043 20.7842 190.643 20.576C188.237 20.3344 185.351 20.554 181.987 21.2342L165.199 24.6284Z" fill="white"/>
</svg>

<svg xmlns="http://www.w3.org/2000/svg" width="241" height="109" fill="none" viewBox="0 0 241 109"><path fill="#fff" d="m88.333 49.894 3.152 15.589q.413 2.049-.565 2.87-.937.761-3.436 1.268l-4.996 1.01-3.152-15.59q-.414-2.048.574-2.82.978-.822 3.376-1.306zm95.793-19.107q2.499-.506 3.669-.118 1.21.327 1.624 2.376l2.404 11.892q.415 2.048-.563 2.87-.939.761-3.436 1.267l-4.997 1.01-3.697-18.287z"/><path fill="#fff" fill-rule="evenodd" d="M240.654 65.483 6.466 108.728 0 47.246 221.029 0zM81.415 40.631q-4.996 1.011-8.161 2.847t-4.78 4.658q-1.562 2.812-1.705 6.742-.102 3.868.94 9.015.99 4.897 2.536 8.433 1.536 3.486 4.03 5.53 2.544 2.034 6.194 2.596 3.69.502 8.886-.549 5.196-1.05 8.351-2.936 3.195-1.946 4.699-4.799 1.554-2.862 1.617-6.671.051-3.86-.939-8.756-1.041-5.146-2.688-8.662-1.607-3.575-4.19-5.549-2.534-1.984-6.163-2.446-3.58-.473-8.627.547M26.652 52.64l16.87 35.594 17.488-3.536 1.717-39.352-12.642 2.556-.337 24.823-.55.111-9.905-22.752zm74.124-14.987 1.94 9.593 8.694-1.758 5.637 27.88 11.992-2.424-5.637-27.88 8.693-1.758-1.939-9.593zm32.658-6.602 7.576 37.473 26.681-5.395-1.939-9.593-14.689 2.97-.92-4.546 11.992-2.425-1.758-8.694-11.991 2.424-1.021-5.046 12.891-2.606-.441-9.896zm31.765-6.423 7.576 37.474 16.788-3.395q5.047-1.02 8.232-2.756 3.186-1.736 4.78-4.399t1.726-6.382q.171-3.78-.848-8.826-1.02-5.046-2.637-8.411-1.567-3.376-4.07-5.21-2.502-1.835-6.103-2.147-3.61-.363-8.656.658z" clip-rule="evenodd"/></svg>
